assets/img/link/logo-dribbble.svg

<svg fill="none" height="24" viewBox="0 0 24 24" width="24" xmlns="http://www.w3.org/2000/svg" xmlns:xlink="http://www.w3.org/1999/xlink"><clipPath id="a"><path d="m0 0h24v24h-24z"/></clipPath><g clip-path="url(#a)"><path d="m12 0c6.5806 0 12 5.41935 12 12 0 6.629-5.4194 12-12 12-6.62903 0-12-5.371-12-12 0-6.58065 5.37097-12 12-12zm7.8871 5.56452c-.1936.29032-1.8871 2.46774-5.7097 4.01612.3871.77416.6291 1.35486.9194 2.03226 3.3871-.4355 6.7742.2419 7.1129.3387 0-2.41934-.871-4.64515-2.3226-6.38708zm-1.1129-1.20968c-2.5161-2.22581-5.9516-3.04839-9.19356-2.27419.29033.38709 2.12906 2.90322 3.82256 5.99999 3.6291-1.35483 5.1774-3.43548 5.371-3.7258zm-11.17743-1.59678c-2.85483 1.35484-4.98387 4.01613-5.66129 7.16129.48387.04839 4.69355.04839 9.48392-1.20967-1.69359-3.04839-3.5323-5.56452-3.82263-5.95162zm-5.85483 9.29034c0 2.6129.96774 5.0322 2.6129 6.8226 1.64516-2.8065 5.03226-5.8065 8.75806-6.871-.2903-.5806-.5323-1.1613-.871-1.7419-5.08061 1.5484-10.06448 1.5-10.49996 1.4516zm3.91935 8.0806c3.04839 2.371 7.01611 2.7581 10.30641 1.3549-.1451-.9194-.7258-4.0645-2.1774-7.7904-4.11288 1.4033-7.01611 4.2581-8.12901 6.4355zm12.04841.3871c2.2742-1.5484 3.9193-4.0161 4.4032-6.8709-.3871-.0968-3.1935-.9194-6.3871-.4355 1.3065 3.7258 1.8871 6.7258 1.9839 7.3064z" fill="#fcf5eb"/></g></svg>

<svg width="24" height="24" viewBox="0 0 24 24" fill="none" xmlns="http://www.w3.org/2000/svg">
<g clip-path="url(#clip0_3387_1153)">
<path d="M12 0C18.5806 0 24 5.41935 24 12C24 18.629 18.5806 24 12 24C5.37097 24 0 18.629 0 12C0 5.41935 5.37097 0 12 0ZM19.8871 5.56452C19.6935 5.85484 18 8.03226 14.1774 9.58064C14.5645 10.3548 14.8065 10.9355 15.0968 11.6129C18.4839 11.1774 21.871 11.8548 22.2097 11.9516C22.2097 9.53226 21.3387 7.30645 19.8871 5.56452ZM18.7742 4.35484C16.2581 2.12903 12.8226 1.30645 9.58064 2.08065C9.87097 2.46774 11.7097 4.98387 13.4032 8.08064C17.0323 6.72581 18.5806 4.64516 18.7742 4.35484ZM7.59677 2.75806C4.74194 4.1129 2.6129 6.77419 1.93548 9.91935C2.41935 9.96774 6.62903 9.96774 11.4194 8.70968C9.72581 5.66129 7.8871 3.14516 7.59677 2.75806ZM1.74194 12.0484C1.74194 14.6613 2.70968 17.0806 4.35484 18.871C6 16.0645 9.3871 13.0645 13.1129 12C12.8226 11.4194 12.5806 10.8387 12.2419 10.2581C7.16129 11.8065 2.17742 11.7581 1.74194 11.7097C1.74194 11.8548 1.74194 11.9516 1.74194 12.0484ZM5.66129 20.129C8.70968 22.5 12.6774 22.8871 15.9677 21.4839C15.8226 20.5645 15.2419 17.4194 13.7903 13.6935C9.67742 15.0968 6.77419 17.9516 5.66129 20.129ZM17.7097 20.5161C19.9839 18.9677 21.629 16.5 22.1129 13.6452C21.7258 13.5484 18.9194 12.7258 15.7258 13.2097C17.0323 16.9355 17.6129 19.9355 17.7097 20.5161Z" fill="#FCF5EB"/>
</g>
<defs>
<clipPath id="clip0_3387_1153">
<rect width="24" height="24" fill="white"/>
</clipPath>
</defs>
</svg>
